icons/credit-card-16.svg

<svg width="16" height="16" viewBox="0 0 16 16" xmlns="http://www.w3.org/2000/svg">
  <path d="M10.75 9C10.3358 9 10 9.33579 10 9.75C10 10.1642 10.3358 10.5 10.75 10.5H12.25C12.6642 10.5 13 10.1642 13 9.75C13 9.33579 12.6642 9 12.25 9H10.75Z"/>
  <path fill-rule="evenodd" clip-rule="evenodd" d="M0 3.75C0 2.7835 0.783502 2 1.75 2H14.25C15.2165 2 16 2.7835 16 3.75V12.25C16 13.2165 15.2165 14 14.25 14H1.75C0.783501 14 0 13.2165 0 12.25V3.75ZM14.5 3.75V5H1.5V3.75C1.5 3.61193 1.61193 3.5 1.75 3.5H14.25C14.3881 3.5 14.5 3.61193 14.5 3.75ZM14.5 6.5H1.5V12.25C1.5 12.3881 1.61193 12.5 1.75 12.5H14.25C14.3881 12.5 14.5 12.3881 14.5 12.25V6.5Z"/>
</svg>

<svg xmlns="http://www.w3.org/2000/svg" width="16" height="16" viewBox="0 0 16 16"><path d="M10.75 9a.75.75 0 000 1.5h1.5a.75.75 0 000-1.5h-1.5z"/><path fill-rule="evenodd" d="M0 3.75C0 2.784.784 2 1.75 2h12.5c.966 0 1.75.784 1.75 1.75v8.5A1.75 1.75 0 0114.25 14H1.75A1.75 1.75 0 010 12.25v-8.5zm14.5 0V5h-13V3.75a.25.25 0 01.25-.25h12.5a.25.25 0 01.25.25zm0 2.75h-13v5.75c0 .138.112.25.25.25h12.5a.25.25 0 00.25-.25V6.5z"/></svg>
